X:1
T:Sechs Lieder
T:Der träumende See
T:Robert Schumann
T:Julius Mosen
T:Der träumende See
T:Op. 33,1
T:CPDL - Creative Commons Attribution Non Commercial 3.0
T:CPDL - Creative Commons Attribution Non Commercial 3.0
C:Robert Schumann
Z:Julius Mosen
Z:CPDL - Creative Commons Attribution Non Commercial 3.0
%%score [ 1 2 3 4 ]
L:1/8
Q:1/4=90
M:4/4
K:A
V:1 treble-8 nm="Tenor\n1"
V:2 treble-8 nm="Tenor\n2"
V:3 bass nm="Bass\n1"
V:4 bass nm="Bass\n2"
V:1
"^Zart, langsam"!p! e | e2 c2 d3 d | d2 e2 c2 z c | B3 e e!<(!^def!<)! | (f4 e2) z .f | %5
w: Der|See ruht tief im|blau- en Traum, von|Was- ser- blu- men zu- ge-|deckt. _ Ihr|
 .f2 .=d2 .c2 z .c | .f2 .d2 .B4 | z2!pp! .A2 z .A/.A/ .A.d | B3 B c2 z!p! e | e2 c2 d3 d | %10
w: Vög- lein hoch im|Fich- ten- baum,|dass ihr mir nicht den|Schlä- fer weckt! Doch|lei- se weht das|
 d2 e2 c2 z c | B2 z e e^def | (f4 e2) z!pp! .f | .f2 .d2 .c3 .c | .f3 .d .B2 z2 | %15
w: Schilf und wiegt das|Haupt, das Haupt mit leich- tem|Sinn; _ ein|blau- er Fal- ter|a- ber fliegt|
 z2 .A2 .A2 z .d | z2 .B.B .c2 z2 |!<(! B6!<)!!>(! B2!>)! | c4 z4 |] %19
w: da- rü- ber|ein- sam hin,|ein- sam|hin.|
V:2
!p! c | c2 A2 (A2 G)A | B2 B2 A2 z A | G3 B c!<(!Bc^d!<)! | (^d4 e2) z .c | .d2 .B2 .^A2 z .A | %6
 .B2 .B2 .G4 | z2!pp! .=G2 z .G/.G/ .F.F | ^G3 G A2 z!p! c | c2 A2 (A2 G)A | B2 B2 A2 z A | %11
 G2 z B cBc^d | (^d4 e2) z!pp! .c | .=d2 .B2 .^A3 .A | .B3 .B .G2 z2 | z2 .=G2 .F2 z .F | %16
 z2 .^G.G .A2 z2 |!<(! G6!<)!!>(! G2!>)! | A4 z4 |] %19
V:3
 z | z2 z!p! E, E,2 E,F, | G,2 E,2 E,2 z E, | E,3 G, A,!<(!A,A,A,!<)! | (A,4 G,2) z .^A, | %5
w: |Der See ruht _|tief im Traum, von|Was- ser- blu- men zu- ge-|deckt. _ Ihr|
 .B,2 .F,2 .=G,2 z .G, | .F,2 .F,2 .=F,4 | z2!pp! .E,2 z .E,/.E,/ .^F,.F, | E,3 E, E,2 z2 | %9
w: Vög- lein hoch im|Fich- ten- baum,|dass ihr mir nicht den|Schlä- fer weckt!|
 z2 z!p! E, E,2 E,F, | G,2 E,2 E,2 z E, | E,2 z G, A,A,A,A, | (A,4 G,2) z!pp! .^A, | %13
w: Doch lei- se _|wiegt das Schilf das|Haupt, das Haupt mit leich- tem|Sinn; _ ein|
 .B,2 .F,2 .=G,3 .G, | .F,3 .F, .=F,2 z2 | z2 .E,2 .^F,2 z .F, | z2 .E,.E, .E,2 z2 | %17
w: blau- er Fal- ter|a- ber fliegt|da- rü- ber|ein- sam hin,|
!<(! E,6!<)!!>(! E,2!>)! | E,4 z4 |] %19
w: ein- sam|hin.|
V:4
 z | z4 z2 z!p! E, | E,2 G,,2 A,,2 z A,, | B,,3 B,, B,,!<(!B,,B,,B,,!<)! | (B,,4 E,2) z .E, | %5
w: |Der|See ruht tief im|blau- en Traum, im blau- en|Traum, _ _|
 .=D,2 .D,2 .E,2 z .E, | .D,2 .D,2 .D,4 | z2!pp! .C,2 z .C,/.C,/ .D,.B,, | E,3 E, A,,2 z2 | %9
w: _ _ _||||
 z4 z2 z!p! E, | E,2 G,,2 A,,2 z A,, | B,,2 z B,, B,,B,,B,,B,, | (B,,4 E,2) z!pp! .E, | %13
w: Doch|lei- se wiegt das|Schilf * * * * *||
 .D,2 .D,2 .E,3 .E, | .D,3 .D, .D,2 z2 | z2 .C,2 .D,2 z .B,, | z2 .E,.E, A,,3 C, | %17
w: |||ein- sam, ein- sam,|
!<(! E,6!<)!!>(! E,2!>)! | A,,4 z4 |] %19
w: ||

